X: 10583
T: HORNPIPE
C: by Wm. Whipple
%R: hornpipe, reel
B: Elias Howe "The Musician's Companion" Part 1 1842 p.58 #3
S: http://imslp.org/wiki/The_Musician's_Companion_(Howe,_Elias)
Z: 2015 John Chambers <jc:trillian.mit.edu>
M: C|
L: 1/8
K: F
% - - - - - - - - - - - - - - - - - - - - - - - - -
F |\
FGFG ABAG | FFdd cAA2 | GAGF G2fg | afge fagf |\
FGFG ABAG | FFdd cAA2 | GAGF G2fg | afge f3 :|
|: e |\
fgaf gfde | fgfd cAGF | G2g2 gfga | bgaf efge |\
fgaf gfde | fgfd cAGA | FAGA FAGA | dcAG AFF :|
% - - - - - - - - - - - - - - - - - - - - - - - - -


